public/STATUS.svg

<svg width="106" height="115" viewBox="0 0 106 115" fill="none" xmlns="http://www.w3.org/2000/svg">
<g clip-path="url(#clip0_698_6447)">
<mask id="mask0_698_6447" style="mask-type:luminance" maskUnits="userSpaceOnUse" x="0" y="0" width="106" height="115">
<path d="M106 0H0V115H106V0Z" fill="white"/>
</mask>
<g mask="url(#mask0_698_6447)">
<path d="M73.976 74.6724L27.396 101.685C23.656 103.855 20.625 103.064 20.625 99.9204V51.8653C20.625 48.7213 23.656 44.4164 27.396 42.2464L73.976 15.2334C77.714 13.0654 80.745 13.8544 80.745 16.9984V65.0553C80.745 68.1983 77.714 72.5034 73.976 74.6724Z" stroke="#1B69FF" stroke-width="1.5"/>
<path opacity="0.44" d="M61.224 66.4126L14.644 93.4256C10.904 95.5956 7.875 94.8046 7.875 91.6606V43.6056C7.875 40.4616 10.905 36.1566 14.644 33.9866L61.224 6.97359C64.964 4.80559 67.995 5.59461 67.995 8.73861V56.7956C67.995 59.9376 64.964 64.2446 61.224 66.4126Z" stroke="#1B69FF" stroke-width="1.5"/>
<mask id="mask1_698_6447" style="mask-type:luminance" maskUnits="userSpaceOnUse" x="34" y="26" width="116" height="100">
<path d="M34.7578 105.245V54.1627L86.2228 26.0957C86.2228 26.0957 116.975 33.6787 117.734 34.1857C118.493 34.6927 149.849 90.6247 149.849 91.3597C149.849 92.0947 115.964 117.129 113.436 117.887C110.908 118.645 42.1238 125.22 42.1238 125.22" fill="white"/>
</mask>
<g mask="url(#mask1_698_6447)">
<path d="M52.5689 105.842C50.9819 105.842 49.5016 105.492 48.4006 104.856L16.8649 86.6488C15.9287 86.1087 15.3983 85.4268 15.3713 84.7286L15.3594 84.4204V70.022L45.7303 65.9694L45.8939 65.9476L46.0332 65.8592L48.2479 64.453C49.3475 63.822 50.8221 63.4746 52.4024 63.4746C53.989 63.4746 55.4697 63.8248 56.5716 64.4608L70.8771 72.7215L71.0982 72.8492L71.3513 72.8154L89.6094 70.3791L89.6143 84.3428L89.599 84.7007C89.5694 85.3962 89.0394 86.076 88.1068 86.615L56.7354 104.858C55.6363 105.492 54.156 105.842 52.5689 105.842Z" fill="white"/>
<path d="M52.4024 64.2246C50.979 64.2246 49.6081 64.5418 48.6351 65.0956L46.4352 66.4923C46.2516 66.6089 46.045 66.6841 45.8295 66.7128L16.1094 70.6786V84.5645C16.1152 84.6091 16.119 84.6542 16.1207 84.6996C16.1369 85.1185 16.5551 85.6042 17.2399 85.9992L48.7757 104.207C49.7501 104.77 51.1327 105.092 52.569 105.092C54.0052 105.092 55.3878 104.77 56.3584 104.209L87.7316 85.9656C88.4139 85.5713 88.8319 85.0865 88.8497 84.6687C88.852 84.6162 88.8569 84.5645 88.8644 84.5135L88.8597 71.2358L71.4505 73.5588C71.1223 73.6027 70.7888 73.5366 70.502 73.371L56.1967 65.1103C55.2214 64.5474 53.8384 64.2246 52.4024 64.2246ZM52.4024 62.7246C54.0467 62.7246 55.6913 63.0868 56.9465 63.8112L71.2521 72.072L90.3591 69.5224L90.3644 84.7308L90.3484 84.7327C90.3091 85.6515 89.6953 86.5632 88.4821 87.2643L57.1124 105.506C54.6038 106.955 50.5341 106.955 48.0255 105.506L16.4899 87.2983C15.2713 86.5953 14.6575 85.68 14.6219 84.7576L14.6094 84.7593V69.3654L45.6311 65.226L47.8596 63.8112C49.1139 63.0868 50.758 62.7246 52.4024 62.7246Z" fill="#2E3033"/>
<path d="M88.4801 66.7858L56.9411 48.5788C55.533 47.8645 53.9764 47.4922 52.3976 47.4922C50.8187 47.4922 49.2621 47.8645 47.8541 48.5788L16.4841 66.8208C13.9741 68.2698 13.9741 70.6208 16.4841 72.0658L48.0201 90.2738C49.4281 90.9882 50.9847 91.3605 52.5636 91.3605C54.1424 91.3605 55.699 90.9882 57.1071 90.2738L88.4771 72.0318C90.9881 70.5828 90.9881 68.2328 88.4801 66.7858Z" fill="url(#paint0_radial_698_6447)"/>
<path d="M87.5943 66.8507L56.8313 49.0907C55.4577 48.3942 53.9393 48.0312 52.3993 48.0312C50.8592 48.0312 49.3408 48.3942 47.9673 49.0907L17.3672 66.8847C14.9193 68.2977 14.9193 70.5847 17.3672 72.0017L48.1283 89.7617C49.5018 90.4582 51.0202 90.8211 52.5603 90.8211C54.1003 90.8211 55.6187 90.4582 56.9923 89.7617L87.5923 71.9697C90.0423 70.5557 90.0423 68.2637 87.5943 66.8507Z" fill="white"/>
<path d="M52.4021 49.221C53.6807 49.1926 54.946 49.4866 56.0811 50.076L87.6171 68.284C88.3681 68.718 88.6341 69.162 88.6341 69.41C88.6341 69.658 88.368 70.102 87.6131 70.539L56.2431 88.776C55.108 89.3654 53.8427 89.6594 52.5641 89.631C51.2854 89.6592 50.0202 89.3652 48.8851 88.776L17.3491 70.568C16.5981 70.134 16.3321 69.69 16.3321 69.442C16.3321 69.194 16.5981 68.75 17.3541 68.314L48.7181 50.074C49.8532 49.4848 51.1184 49.1908 52.3971 49.219M52.3971 47.49C50.8148 47.4593 49.251 47.8335 47.8541 48.577L16.4841 66.819C13.9741 68.268 13.9741 70.619 16.4841 72.064L48.0201 90.272C49.417 91.0155 50.9808 91.3897 52.5631 91.359C54.1456 91.3898 55.7098 91.0156 57.1071 90.272L88.4771 72.03C90.9861 70.581 90.9861 68.23 88.4771 66.784L56.9431 48.579C55.5458 47.8354 53.9816 47.4612 52.3991 47.492L52.3971 47.49Z" fill="#2E3033"/>
<path d="M61.3524 94.308L59.8594 95.17V93.446L61.3524 92.584V94.308Z" fill="#393939"/>
<path d="M64.4774 92.5052L62.9844 93.3672V91.6432L64.4774 90.7812V92.5052Z" fill="#393939"/>
<path d="M67.6024 90.7025L66.1094 91.5645V89.8405L67.6024 88.9785V90.7025Z" fill="#393939"/>
<path d="M65.0477 95.6693L63.5547 96.5313V94.8073L65.0477 93.9453V95.6693Z" fill="#393939"/>
<path d="M67.7977 94.0814L66.3047 94.9434V93.2194L67.7977 92.3574V94.0814Z" fill="#393939"/>
<path d="M77.618 84.9174L76.125 85.7794V84.0554L77.618 83.1934V84.9174Z" fill="#393939"/>
<path d="M86.2196 79.9506L84.7266 80.8126V79.0886L86.2196 78.2266V79.9506Z" fill="#393939"/>
<path d="M70.7196 88.8978L69.2266 89.7598V88.0358L70.7196 87.1738V88.8978Z" fill="#393939"/>
<path d="M52.5689 83.9089C50.9819 83.9089 49.5016 83.5587 48.4006 82.9229L16.8649 64.7169C15.9289 64.1756 15.3983 63.4936 15.3713 62.7967L15.3594 62.489V48.0902L45.7303 44.0376L45.8941 44.0158L46.0335 43.9272L48.2481 42.5193C49.3477 41.8884 50.8223 41.541 52.4024 41.541C53.989 41.541 55.4697 41.8912 56.5716 42.5271L70.8771 50.7879L71.0982 50.9156L71.3513 50.8818L89.6094 48.4454L89.6143 62.4091L89.599 62.7671C89.5693 63.464 89.0396 64.1437 88.1075 64.681L56.7354 82.924C55.6363 83.5587 54.156 83.9089 52.5689 83.9089Z" fill="white"/>
<path d="M52.4024 42.291C50.9791 42.291 49.6084 42.6081 48.6354 43.1617L46.1571 44.7373L16.1094 48.7467V62.4746L16.1207 62.7676C16.1369 63.1856 16.5557 63.6717 17.2399 64.0674L48.7757 82.2734C49.7501 82.8362 51.1327 83.1589 52.569 83.1589C54.0052 83.1589 55.3879 82.8362 56.3584 82.2757L87.7329 64.0312C88.4144 63.6384 88.8318 63.1538 88.8497 62.735L88.8643 62.3934L88.8597 49.3021L70.9443 51.6928L56.1968 43.1767C55.2214 42.6138 53.8384 42.291 52.4024 42.291ZM52.4024 40.791C54.0467 40.791 55.6913 41.1532 56.9465 41.8775L71.2521 50.1384L90.3591 47.5887L90.3644 62.7972L90.3484 62.799C90.3091 63.7178 89.6953 64.6313 88.4821 65.3307L57.1124 83.5724C54.6038 85.0211 50.5341 85.0211 48.0255 83.5724L16.4899 65.3664C15.2713 64.6617 14.6575 63.7465 14.6219 62.8257L14.6094 62.8275V47.4336L45.6311 43.2942L47.8596 41.8775C49.1139 41.1532 50.758 40.791 52.4024 40.791Z" fill="#2E3033"/>
<path d="M88.4801 44.8502L56.9411 26.6452C55.533 25.9309 53.9764 25.5586 52.3976 25.5586C50.8187 25.5586 49.2621 25.9309 47.8541 26.6452L16.4841 44.8852C13.9741 46.3342 13.9741 48.6852 16.4841 50.1322L48.0201 68.3402C49.4281 69.0546 50.9847 69.4269 52.5636 69.4269C54.1424 69.4269 55.699 69.0546 57.1071 68.3402L88.4771 50.0982C90.9881 48.6492 90.9881 46.2992 88.4801 44.8502Z" fill="url(#paint1_radial_698_6447)"/>
<path d="M87.5943 44.9171L56.8313 27.1552C55.4577 26.4587 53.9393 26.0957 52.3993 26.0957C50.8592 26.0957 49.3408 26.4587 47.9673 27.1552L17.3672 44.9491C14.9193 46.3621 14.9193 48.6491 17.3672 50.0681L48.1283 67.8281C49.5018 68.5246 51.0202 68.8876 52.5603 68.8876C54.1003 68.8876 55.6187 68.5246 56.9923 67.8281L87.5923 50.0341C90.0423 48.6211 90.0423 46.3291 87.5943 44.9171Z" fill="white"/>
<path d="M52.4021 27.2874C53.6807 27.259 54.946 27.5531 56.0811 28.1424L87.6171 46.3504C88.3681 46.7844 88.6341 47.2284 88.6341 47.4764C88.6341 47.7244 88.368 48.1684 87.6131 48.6044L56.2431 66.8414C55.1082 67.4314 53.8428 67.7255 52.5641 67.6964C51.2853 67.7255 50.0199 67.4314 48.8851 66.8414L17.3491 48.6354C16.5981 48.2014 16.3321 47.7574 16.3321 47.5094C16.3321 47.2614 16.5981 46.8174 17.3541 46.3804L48.7181 28.1424C49.8532 27.5533 51.1184 27.2592 52.3971 27.2874M52.3971 25.5584C50.8148 25.5277 49.251 25.9019 47.8541 26.6454L16.4841 44.8854C13.9741 46.3344 13.9741 48.6854 16.4841 50.1324L48.0201 68.3404C49.4172 69.0833 50.981 69.4568 52.5631 69.4254C54.1454 69.4568 55.7096 69.0833 57.1071 68.3404L88.4771 50.0984C90.9861 48.6494 90.9861 46.2984 88.4771 44.8514L56.9431 26.6454C55.5458 25.9018 53.9816 25.5276 52.3991 25.5584H52.3971Z" fill="#2E3033"/>
<path d="M61.3524 72.3754L59.8594 73.2374V71.5124L61.3524 70.6504V72.3754Z" fill="#2E3033"/>
<path d="M64.4774 70.5717L62.9844 71.4337V69.7097L64.4774 68.8477V70.5717Z" fill="#2E3033"/>
<path d="M67.6024 68.7689L66.1094 69.6309V67.9069L67.6024 67.0449V68.7689Z" fill="#2E3033"/>
<path d="M65.0477 73.7357L63.5547 74.5977V72.8737L65.0477 72.0117V73.7357Z" fill="#2E3033"/>
<path d="M67.7977 72.1478L66.3047 73.0098V71.2858L67.7977 70.4238V72.1478Z" fill="#2E3033"/>
<path d="M77.618 62.9838L76.125 63.8458V62.1218L77.618 61.2598V62.9838Z" fill="#2E3033"/>
<path d="M86.2196 58.017L84.7266 58.879V57.155L86.2196 56.293V58.017Z" fill="#2E3033"/>
<path d="M70.7196 66.9642L69.2266 67.8262V66.1022L70.7196 65.2402V66.9642Z" fill="#2E3033"/>
</g>
</g>
</g>
<defs>
<radialGradient id="paint0_radial_698_6447" cx="0" cy="0" r="1" gradientUnits="userSpaceOnUse" gradientTransform="translate(75.2099 44.5969) scale(119.268 119.278)">
<stop stop-color="#01C8EF"/>
<stop offset="0.14" stop-color="#03BAE4"/>
<stop offset="0.403" stop-color="#0895C7"/>
<stop offset="0.76" stop-color="#105A99"/>
<stop offset="1" stop-color="#172F78"/>
</radialGradient>
<radialGradient id="paint1_radial_698_6447" cx="0" cy="0" r="1" gradientUnits="userSpaceOnUse" gradientTransform="translate(75.2099 22.6633) scale(119.268 119.278)">
<stop stop-color="#01C8EF"/>
<stop offset="0.14" stop-color="#03BAE4"/>
<stop offset="0.403" stop-color="#0895C7"/>
<stop offset="0.76" stop-color="#105A99"/>
<stop offset="1" stop-color="#172F78"/>
</radialGradient>
<clipPath id="clip0_698_6447">
<rect width="106" height="115" fill="white"/>
</clipPath>
</defs>
</svg>

<svg xmlns="http://www.w3.org/2000/svg" width="106" height="115" fill="none" viewBox="0 0 106 115"><g clip-path="url(#a)"><mask id="b" width="106" height="115" x="0" y="0" maskUnits="userSpaceOnUse" style="mask-type:luminance"><path fill="#fff" d="M106 0H0v115h106z"/></mask><g mask="url(#b)"><path stroke="#1b69ff" stroke-width="1.5" d="m73.976 74.672-46.58 27.013c-3.74 2.17-6.771 1.379-6.771-1.765V51.865c0-3.144 3.031-7.449 6.771-9.619l46.58-27.013c3.738-2.168 6.769-1.379 6.769 1.765v48.057c0 3.143-3.031 7.448-6.769 9.617Z"/><path stroke="#1b69ff" stroke-width="1.5" d="m61.224 66.413-46.58 27.013c-3.74 2.17-6.769 1.379-6.769-1.765V43.606c0-3.144 3.03-7.45 6.769-9.62l46.58-27.012c3.74-2.168 6.771-1.38 6.771 1.765v48.057c0 3.142-3.031 7.449-6.771 9.617Z" opacity=".44"/><mask id="c" width="116" height="100" x="34" y="26" maskUnits="userSpaceOnUse" style="mask-type:luminance"><path fill="#fff" d="M34.758 105.245V54.163l51.465-28.067s30.752 7.583 31.511 8.09 32.115 56.439 32.115 57.174-33.885 25.769-36.413 26.527-71.312 7.333-71.312 7.333"/></mask><g mask="url(#c)"><path fill="#fff" d="M52.569 105.842c-1.587 0-3.067-.35-4.168-.986L16.865 86.649c-.936-.54-1.467-1.222-1.494-1.92l-.012-.309V70.022l30.371-4.053.164-.021.14-.089 2.214-1.406c1.1-.631 2.574-.978 4.154-.978 1.587 0 3.068.35 4.17.986l14.305 8.26.221.128.253-.034L89.61 70.38l.005 13.964-.015.358c-.03.695-.56 1.375-1.492 1.914l-31.372 18.243c-1.099.634-2.579.984-4.166.984"/><path fill="#2e3033" d="M52.402 64.225c-1.423 0-2.794.317-3.767.87l-2.2 1.397c-.183.117-.39.192-.605.22L16.11 70.68v13.885q.008.067.01.136c.017.418.435.904 1.12 1.3l31.536 18.207c.974.563 2.357.885 3.793.885s2.819-.322 3.79-.883l31.373-18.243c.682-.395 1.1-.88 1.118-1.297q.003-.08.014-.156l-.004-13.277-17.41 2.323a1.5 1.5 0 0 1-.948-.188l-14.305-8.26c-.976-.564-2.359-.886-3.795-.886m0-1.5c1.645 0 3.29.362 4.544 1.086l14.306 8.261 19.107-2.55.005 15.209-.016.002c-.039.918-.653 1.83-1.866 2.531l-31.37 18.242c-2.508 1.449-6.578 1.449-9.086 0L16.49 87.298c-1.219-.703-1.832-1.618-1.868-2.54l-.013.001V69.365l31.022-4.139 2.229-1.415c1.254-.724 2.898-1.086 4.542-1.086"/><path fill="url(#d)" d="M88.48 66.786 56.941 48.579a10.04 10.04 0 0 0-9.087 0L16.484 66.82c-2.51 1.449-2.51 3.8 0 5.245L48.02 90.274a10.04 10.04 0 0 0 9.087 0l31.37-18.242c2.511-1.45 2.511-3.8.003-5.246"/><path fill="#fff" d="M87.594 66.85 56.831 49.09a9.8 9.8 0 0 0-8.864 0l-30.6 17.795c-2.448 1.413-2.448 3.7 0 5.117l30.761 17.76a9.8 9.8 0 0 0 8.864 0l30.6-17.792c2.45-1.414 2.45-3.706.002-5.12"/><path fill="#2e3033" d="M52.402 49.221a7.6 7.6 0 0 1 3.68.855l31.535 18.208c.751.434 1.017.878 1.017 1.126s-.266.692-1.02 1.129l-31.37 18.237c-1.136.59-2.401.883-3.68.855a7.6 7.6 0 0 1-3.679-.855L17.35 70.568c-.75-.434-1.017-.878-1.017-1.126s.266-.692 1.022-1.128l31.364-18.24a7.6 7.6 0 0 1 3.68-.855m0-1.729a9.3 9.3 0 0 0-4.544 1.087l-31.37 18.242c-2.51 1.449-2.51 3.8 0 5.245L48.02 90.272a9.3 9.3 0 0 0 4.543 1.087 9.3 9.3 0 0 0 4.544-1.087l31.37-18.242c2.51-1.449 2.51-3.8 0-5.246L56.943 48.579a9.3 9.3 0 0 0-4.544-1.087z"/><path fill="#393939" d="m61.352 94.308-1.493.862v-1.724l1.493-.862zM64.477 92.505l-1.493.862v-1.724l1.493-.862zM67.602 90.703l-1.493.861v-1.723l1.493-.862zM65.048 95.67l-1.493.861v-1.724l1.493-.862zM67.798 94.081l-1.493.862V93.22l1.493-.862zM77.618 84.917l-1.493.862v-1.724l1.493-.862zM86.22 79.95l-1.493.863v-1.724l1.493-.862zM70.72 88.898l-1.493.862v-1.724l1.493-.862z"/><path fill="#fff" d="M52.569 83.909c-1.587 0-3.067-.35-4.168-.986L16.865 64.717c-.936-.541-1.467-1.223-1.494-1.92l-.012-.308V48.09l30.371-4.052.164-.022.14-.089 2.214-1.408c1.1-.63 2.574-.978 4.154-.978 1.587 0 3.068.35 4.17.986l14.305 8.26.221.129.253-.034 18.258-2.437.005 13.964-.015.358c-.03.697-.56 1.377-1.492 1.914L56.736 82.924c-1.099.635-2.579.985-4.166.985"/><path fill="#2e3033" d="M52.402 42.291c-1.423 0-2.794.317-3.767.87l-2.478 1.576-30.048 4.01v13.728l.012.293c.016.418.435.904 1.119 1.3l31.536 18.205c.974.563 2.357.886 3.793.886s2.819-.323 3.79-.883L87.732 64.03c.681-.393 1.099-.877 1.117-1.296l.014-.342-.004-13.09-17.916 2.39-14.747-8.516c-.976-.563-2.359-.886-3.795-.886m0-1.5c1.645 0 3.29.362 4.544 1.087l14.306 8.26 19.107-2.55.005 15.21-.016.001c-.039.919-.653 1.832-1.866 2.532l-31.37 18.241c-2.508 1.45-6.578 1.45-9.086 0L16.49 65.366c-1.219-.704-1.832-1.62-1.868-2.54l-.013.002V47.434l31.022-4.14 2.229-1.416c1.254-.725 2.898-1.087 4.542-1.087"/><path fill="url(#e)" d="M88.48 44.85 56.941 26.645a10.04 10.04 0 0 0-9.087 0l-31.37 18.24c-2.51 1.45-2.51 3.8 0 5.247L48.02 68.34a10.04 10.04 0 0 0 9.087 0l31.37-18.242c2.511-1.449 2.511-3.799.003-5.248"/><path fill="#fff" d="M87.594 44.917 56.831 27.155a9.8 9.8 0 0 0-8.864 0l-30.6 17.794c-2.448 1.413-2.448 3.7 0 5.12l30.761 17.76a9.8 9.8 0 0 0 8.864 0l30.6-17.795c2.45-1.413 2.45-3.705.002-5.117"/><path fill="#2e3033" d="M52.402 27.287a7.6 7.6 0 0 1 3.68.855L87.616 46.35c.751.434 1.017.878 1.017 1.126s-.266.692-1.02 1.128l-31.37 18.237c-1.136.59-2.401.885-3.68.855a7.6 7.6 0 0 1-3.679-.855L17.35 48.635c-.75-.434-1.017-.878-1.017-1.126s.266-.692 1.022-1.129l31.364-18.238a7.6 7.6 0 0 1 3.68-.855m0-1.729a9.3 9.3 0 0 0-4.544 1.087l-31.37 18.24c-2.51 1.45-2.51 3.8 0 5.247L48.02 68.34a9.3 9.3 0 0 0 4.543 1.085 9.3 9.3 0 0 0 4.544-1.085l31.37-18.242c2.51-1.449 2.51-3.8 0-5.247L56.943 26.645a9.3 9.3 0 0 0-4.544-1.087zM61.352 72.375l-1.493.862v-1.725l1.493-.862zM64.477 70.572l-1.493.862V69.71l1.493-.862zM67.602 68.769l-1.493.862v-1.724l1.493-.862zM65.048 73.736l-1.493.862v-1.724l1.493-.862zM67.798 72.148l-1.493.862v-1.724l1.493-.862zM77.618 62.984l-1.493.862v-1.724l1.493-.862zM86.22 58.017l-1.493.862v-1.724l1.493-.862zM70.72 66.964l-1.493.862v-1.724l1.493-.862z"/></g></g></g><defs><radialGradient id="d" cx="0" cy="0" r="1" gradientTransform="matrix(119.268 0 0 119.278 75.21 44.597)" gradientUnits="userSpaceOnUse"><stop stop-color="#01c8ef"/><stop offset=".14" stop-color="#03bae4"/><stop offset=".403" stop-color="#0895c7"/><stop offset=".76" stop-color="#105a99"/><stop offset="1" stop-color="#172f78"/></radialGradient><radialGradient id="e" cx="0" cy="0" r="1" gradientTransform="matrix(119.268 0 0 119.278 75.21 22.663)" gradientUnits="userSpaceOnUse"><stop stop-color="#01c8ef"/><stop offset=".14" stop-color="#03bae4"/><stop offset=".403" stop-color="#0895c7"/><stop offset=".76" stop-color="#105a99"/><stop offset="1" stop-color="#172f78"/></radialGradient><clipPath id="a"><path fill="#fff" d="M0 0h106v115H0z"/></clipPath></defs></svg>
